X:1
T:Silksworth, 75.75.77
T:Silksworth, 75.75.77
T:Charles John Vincent, Jr. (1852-1934)
T:Public Domain Courtesy of the Cyber Hymnal™
C:Charles John Vincent, Jr. (1852-1934)
Z:Public Domain
Z:Courtesy of the Cyber Hymnal™
%%score ( 1 2 ) ( 3 4 )
L:1/8
Q:1/4=110
M:4/4
K:F
V:1 treble 
V:2 treble 
V:3 bass 
V:4 bass 
V:1
 [CF]3 [CG] [CA]2 F2 | [FG]2 AB [FA]4 | D3 [DE] FG A=B | [Ec]8 | [DG]3 [DA] [DB]2 G2 | %5
 [GA]2 Bc [GB]4 | [FA]2 BA [FG]2 AG | [CF]8 | [EG]3 [FA] [GB][Ac][Bd][Ac] | [Ac]4 [FA]4 | %10
 [DB]3 [DA] [EA][EG][EA][EG] | [CF]8 |] %12
V:2
 x6 F2 | x2 E2 x4 | D3 C2 F2 x | x8 | x6 G2 | x2 ^F2 x4 | x2 F2 x E2 x | x8 | x8 | x8 | x8 | x8 |] %12
V:3
 [F,A,]3 [F,B,] [F,C]2 [F,A,]2 | [C,C]2 [C,C]2 [F,C]4 | B,3 B, A,2 [G,D]2 | [C,C]8 | %4
 [G,B,]3 [G,C] [G,D]2 [G,B,]2 | [D,D]2 [D,D]2 [G,D]4 | [C,C]2 DC [C,=B,]2 [C,_B,]2 | [F,A,]8 | %8
 [C,C]3 [C,C] [C,C][C,C][C,C][C,C] | [F,C]8 | [B,,B,]3 [B,,B,] [B,,B,][B,,B,][B,,B,][B,,B,] | %11
 [F,A,]8 |] %12
V:4
 x8 | x8 | B,3 B, A,2 x2 | x8 | x8 | x8 | x2 C,2 x4 | x8 | x8 | x8 | x8 | x8 |] %12

